; generated by Slic3r 0.7.2-ultimaker on 2012-03-22 at 11:25:05

; layer_height = 0.1
; perimeters = 2
; solid_layers = 3
; fill_density = 0.3
; nozzle_diameter = 0.4
; filament_diameter = 2.94
; extrusion_multiplier = 1
; perimeter_speed = 50
; infill_speed = 100
; travel_speed = 150
; extrusion_width_ratio = 0
; scale = 1
; single wall width = 0.56mm

M104 S220 ; set temperature
M92 X78.7402 Y78.7402 E926
G28 ; home all axes
M106 ; turn fan on
M109 S220 ; wait for temperature to be reached
G90 ; use absolute coordinates
G21 ; set units to millimeters
G92 E0 ; reset extrusion distance
M82 ; use absolute distances for extrusion
G1 Z0.100 F9000.000
G1 X75.430 Y76.080
G1
G1 X76.760 Y74.800 F1500.000 E0.01464
G1 X78.580 Y73.390 E0.03291
G1 X80.540 Y72.180 E0.05118
G1 X82.200 Y71.380 E0.06580
G1 X83.490 Y70.880 E0.07677
G1 X85.260 Y70.350 E0.09143
G1 X87.070 Y69.980 E0.10609
G1 X88.440 Y69.810 E0.11704
G1 X90.280 Y69.730 E0.13165
G1 X110.630 Y69.750 E0.29308
G1 X112.920 Y69.980 E0.31134
G1 X114.730 Y70.350 E0.32600
G1 X116.500 Y70.880 E0.34065
G1 X117.790 Y71.380 E0.35163
G1 X119.450 Y72.180 E0.36625
G1 X121.030 Y73.130 E0.38087
G1 X122.520 Y74.210 E0.39547
G1 X124.240 Y75.750 E0.41379
G1 X125.190 Y76.760 E0.42478
G1 X126.600 Y78.580 E0.44305
G1 X127.810 Y80.540 E0.46132
G1 X128.610 Y82.200 E0.47594
G1 X129.110 Y83.490 E0.48691
G1 X129.640 Y85.260 E0.50157
G1 X130.010 Y87.070 E0.51623
G1 X130.180 Y88.440 E0.52718
G1 X130.240 Y110.630 E0.70321
G1 X130.010 Y112.920 E0.72147
G1 X129.640 Y114.730 E0.73612
G1 X129.110 Y116.500 E0.75078
G1 X128.610 Y117.790 E0.76176
G1 X127.810 Y119.450 E0.77638
G1 X126.860 Y121.030 E0.79100
G1 X125.780 Y122.520 E0.80560
G1 X124.240 Y124.240 E0.82391
G1 X123.230 Y125.190 E0.83491
G1 X121.410 Y126.600 E0.85318
G1 X119.450 Y127.810 E0.87145
G1 X117.790 Y128.610 E0.88607
G1 X116.500 Y129.110 E0.89704
G1 X114.730 Y129.640 E0.91170
G1 X112.920 Y130.010 E0.92636
G1 X111.550 Y130.180 E0.93731
G1 X109.710 Y130.260 E0.95192
G1 X89.360 Y130.240 E1.11335
G1 X87.070 Y130.010 E1.13161
G1 X85.260 Y129.640 E1.14627
G1 X83.490 Y129.110 E1.16092
G1 X82.200 Y128.610 E1.17190
G1 X80.540 Y127.810 E1.18652
G1 X78.960 Y126.860 E1.20114
G1 X77.470 Y125.780 E1.21574
G1 X75.750 Y124.240 E1.23406
G1 X74.800 Y123.230 E1.24505
G1 X73.390 Y121.410 E1.26332
G1 X72.180 Y119.450 E1.28159
G1 X71.380 Y117.790 E1.29621
G1 X70.880 Y116.500 E1.30718
G1 X70.350 Y114.730 E1.32184
G1 X69.980 Y112.920 E1.33650
G1 X69.810 Y111.550 E1.34745
G1 X69.750 Y89.360 E1.52348
G1 X69.980 Y87.070 E1.54174
G1 X70.350 Y85.260 E1.55639
G1 X70.880 Y83.490 E1.57105
G1 X71.380 Y82.200 E1.58203
G1 X72.180 Y80.540 E1.59665
G1 X73.130 Y78.960 E1.61127
G1 X74.210 Y77.470 E1.62587
G1 X75.372 Y76.141 E1.63987
G1 X75.660 Y76.630 F9000.000
G1 X76.630 Y75.660 F1500.000 E1.65076
G1 X78.010 Y74.480 E1.66516
G1 X79.500 Y73.430 E1.67962
G1 X81.080 Y72.520 E1.69409
G1 X82.730 Y71.760 E1.70850
G1 X83.580 Y71.430 E1.71573
G1 X85.320 Y70.900 E1.73016
G1 X87.110 Y70.530 E1.74466
G1 X88.460 Y70.360 E1.75545
G1 X90.280 Y70.280 E1.76991
G1 X110.620 Y70.300 E1.93126
G1 X112.880 Y70.530 E1.94928
G1 X114.670 Y70.900 E1.96378
G1 X116.410 Y71.430 E1.97821
G1 X118.090 Y72.120 E1.99262
G1 X119.710 Y72.960 E2.00710
G1 X120.870 Y73.680 E2.01793
G1 X121.980 Y74.480 E2.02878
G1 X123.360 Y75.660 E2.04318
G1 X124.330 Y76.630 E2.05407
G1 X125.510 Y78.010 E2.06847
G1 X126.560 Y79.500 E2.08293
G1 X127.470 Y81.080 E2.09739
G1 X128.230 Y82.730 E2.11181
G1 X128.560 Y83.580 E2.11904
G1 X129.090 Y85.320 E2.13347
G1 X129.460 Y87.110 E2.14797
G1 X129.630 Y88.460 E2.15876
G1 X129.690 Y110.620 E2.33456
G1 X129.460 Y112.880 E2.35258
G1 X129.090 Y114.670 E2.36708
G1 X128.560 Y116.410 E2.38151
G1 X127.870 Y118.090 E2.39591
G1 X127.030 Y119.710 E2.41039
G1 X126.310 Y120.870 E2.42122
G1 X125.510 Y121.980 E2.43208
G1 X124.330 Y123.360 E2.44648
G1 X123.360 Y124.330 E2.45736
G1 X121.980 Y125.510 E2.47177
G1 X120.490 Y126.560 E2.48623
G1 X118.910 Y127.470 E2.50069
G1 X117.260 Y128.230 E2.51510
G1 X116.410 Y128.560 E2.52233
G1 X114.670 Y129.090 E2.53676
G1 X112.880 Y129.460 E2.55126
G1 X111.530 Y129.630 E2.56206
G1 X109.710 Y129.710 E2.57651
G1 X89.370 Y129.690 E2.73787
G1 X87.110 Y129.460 E2.75589
G1 X85.320 Y129.090 E2.77039
G1 X83.580 Y128.560 E2.78482
G1 X81.900 Y127.870 E2.79922
G1 X80.280 Y127.030 E2.81370
G1 X79.120 Y126.310 E2.82453
G1 X78.010 Y125.510 E2.83539
G1 X76.630 Y124.330 E2.84979
G1 X75.660 Y123.360 E2.86067
G1 X74.480 Y121.980 E2.87508
G1 X73.430 Y120.490 E2.88954
G1 X72.520 Y118.910 E2.90400
G1 X71.760 Y117.260 E2.91841
G1 X71.430 Y116.410 E2.92564
G1 X70.900 Y114.670 E2.94007
G1 X70.530 Y112.880 E2.95457
G1 X70.360 Y111.530 E2.96537
G1 X70.300 Y89.370 E3.14116
G1 X70.530 Y87.110 E3.15918
G1 X70.900 Y85.320 E3.17368
G1 X71.430 Y83.580 E3.18811
G1 X72.120 Y81.900 E3.20252
G1 X72.960 Y80.280 E3.21700
G1 X73.680 Y79.120 E3.22783
G1 X74.480 Y78.010 E3.23868
G1 X75.604 Y76.693 E3.25242
G1 X90.829 Y90.829 F9000.000
G1 X109.171 Y90.829 F1500.000 E3.39792
G1 X109.171 Y109.171 E3.54342
G1 X90.829 Y109.171 E3.68892
G1 X90.829 Y90.913 E3.83376
G1 X90.280 Y90.280 F9000.000
G1 X109.720 Y90.280 F1500.000 E3.98797
G1 X109.720 Y109.720 E4.14219
G1 X90.280 Y109.720 E4.29641
G1 X90.280 Y90.364 E4.44996
G1 X91.921 Y108.780 F9000.000
G1 X91.220 Y108.079 F1800.000 E4.45797
G1 X91.220 Y107.295 E4.46431
G1 X92.705 Y108.780 E4.48129
G1 X93.489 Y108.780 E4.48763
G1 X91.220 Y106.511 E4.51358
G1 X91.220 Y105.727 E4.51992
G1 X94.273 Y108.780 E4.55484
G1 X95.058 Y108.780 E4.56118
G1 X91.220 Y104.942 E4.60506
G1 X91.220 Y104.158 E4.61140
G1 X95.842 Y108.780 E4.66425
G1 X96.626 Y108.780 E4.67059
G1 X91.220 Y103.374 E4.73241
G1 X91.220 Y102.590 E4.73875
G1 X97.410 Y108.780 E4.80953
G1 X98.194 Y108.780 E4.81587
G1 X91.220 Y101.806 E4.89562
G1 X91.220 Y101.022 E4.90196
G1 X98.978 Y108.780 E4.99067
G1 X99.762 Y108.780 E4.99702
G1 X91.220 Y100.238 E5.09470
G1 X91.220 Y99.454 E5.10104
G1 X100.546 Y108.780 E5.20769
G1 X101.331 Y108.780 E5.21403
G1 X91.220 Y98.669 E5.32964
G1 X91.220 Y97.885 E5.33598
G1 X102.115 Y108.780 E5.46057
G1 X102.899 Y108.780 E5.46691
G1 X91.220 Y97.101 E5.60046
G1 X91.220 Y96.317 E5.60680
G1 X103.683 Y108.780 E5.74931
G1 X104.467 Y108.780 E5.75566
G1 X91.220 Y95.533 E5.90714
G1 X91.220 Y94.749 E5.91348
G1 X105.251 Y108.780 E6.07393
G1 X106.035 Y108.780 E6.08027
G1 X91.220 Y93.965 E6.24969
G1 X91.220 Y93.180 E6.25603
G1 X106.820 Y108.780 E6.43441
G1 X107.604 Y108.780 E6.44075
G1 X91.220 Y92.396 E6.62810
G1 X91.220 Y91.612 E6.63444
G1 X108.388 Y108.780 E6.83076
G1 X108.780 Y108.388 E6.83524
G1 X91.612 Y91.220 E7.03156
G1 X92.396 Y91.220 E7.03790
G1 X108.780 Y107.604 E7.22525
G1 X108.780 Y106.820 E7.23159
G1 X93.180 Y91.220 E7.40997
G1 X93.965 Y91.220 E7.41631
G1 X108.780 Y106.035 E7.58573
G1 X108.780 Y105.251 E7.59207
G1 X94.749 Y91.220 E7.75252
G1 X95.533 Y91.220 E7.75886
G1 X108.780 Y104.467 E7.91034
G1 X108.780 Y103.683 E7.91669
G1 X96.317 Y91.220 E8.05920
G1 X97.101 Y91.220 E8.06554
G1 X108.780 Y102.899 E8.19909
G1 X108.780 Y102.115 E8.20543
G1 X97.885 Y91.220 E8.33002
G1 X98.669 Y91.220 E8.33636
G1 X108.780 Y101.331 E8.45197
G1 X108.780 Y100.546 E8.45831
G1 X99.454 Y91.220 E8.56496
G1 X100.238 Y91.220 E8.57130
G1 X108.780 Y99.762 E8.66898
G1 X108.780 Y98.978 E8.67533
G1 X101.022 Y91.220 E8.76404
G1 X101.806 Y91.220 E8.77038
G1 X108.780 Y98.194 E8.85013
G1 X108.780 Y97.410 E8.85647
G1 X102.590 Y91.220 E8.92725
G1 X103.374 Y91.220 E8.93359
G1 X108.780 Y96.626 E8.99541
G1 X108.780 Y95.842 E9.00175
G1 X104.158 Y91.220 E9.05460
G1 X104.942 Y91.220 E9.06094
G1 X108.780 Y95.058 E9.10482
G1 X108.780 Y94.273 E9.11116
G1 X105.727 Y91.220 E9.14608
G1 X106.511 Y91.220 E9.15242
G1 X108.780 Y93.489 E9.17837
G1 X108.780 Y92.705 E9.18471
G1 X107.295 Y91.220 E9.20169
G1 X108.079 Y91.220 E9.20803
G1 X108.780 Y91.921 E9.21604
G1 Z0.200 F9000.000
G1 X109.171 Y90.829
G1 X109.171 Y109.171 F3000.000 E9.36155
G1 X90.829 Y109.171 E9.50705
G1 X90.829 Y90.829 E9.65255
G1 X109.087 Y90.829 E9.79738
G1 X109.720 Y90.280 F9000.000
G1 X109.720 Y109.720 F3000.000 E9.95160
G1 X90.280 Y109.720 E10.10582
G1 X90.280 Y90.280 E10.26003
G1 X109.636 Y90.280 E10.41358
G1 X91.921 Y91.220 F9000.000
G1 X91.220 Y91.921 F3600.000 E10.42160
G1 X91.220 Y92.705 E10.42794
G1 X92.705 Y91.220 E10.44492
G1 X93.489 Y91.220 E10.45126
G1 X91.220 Y93.489 E10.47721
G1 X91.220 Y94.273 E10.48355
G1 X94.273 Y91.220 E10.51846
G1 X95.058 Y91.220 E10.52480
G1 X91.220 Y95.058 E10.56869
G1 X91.220 Y95.842 E10.57503
G1 X95.842 Y91.220 E10.62788
G1 X96.626 Y91.220 E10.63422
G1 X91.220 Y96.626 E10.69603
G1 X91.220 Y97.410 E10.70237
G1 X97.410 Y91.220 E10.77315
G1 X98.194 Y91.220 E10.77949
G1 X91.220 Y98.194 E10.85924
G1 X91.220 Y98.978 E10.86558
G1 X98.978 Y91.220 E10.95430
G1 X99.762 Y91.220 E10.96064
G1 X91.220 Y99.762 E11.05832
G1 X91.220 Y100.546 E11.06466
G1 X100.546 Y91.220 E11.17131
G1 X101.331 Y91.220 E11.17765
G1 X91.220 Y101.331 E11.29327
G1 X91.220 Y102.115 E11.29961
G1 X102.115 Y91.220 E11.42419
G1 X102.899 Y91.220 E11.43053
G1 X91.220 Y102.899 E11.56408
G1 X91.220 Y103.683 E11.57042
G1 X103.683 Y91.220 E11.71294
G1 X104.467 Y91.220 E11.71928
G1 X91.220 Y104.467 E11.87076
G1 X91.220 Y105.251 E11.87710
G1 X105.251 Y91.220 E12.03755
G1 X106.035 Y91.220 E12.04390
G1 X91.220 Y106.035 E12.21331
G1 X91.220 Y106.820 E12.21965
G1 X106.820 Y91.220 E12.39804
G1 X107.604 Y91.220 E12.40438
G1 X91.220 Y107.604 E12.59173
G1 X91.220 Y108.388 E12.59807
G1 X108.388 Y91.220 E12.79438
G1 X108.780 Y91.612 E12.79887
G1 X91.612 Y108.780 E12.99518
G1 X92.396 Y108.780 E13.00152
G1 X108.780 Y92.396 E13.18887
G1 X108.780 Y93.180 E13.19522
G1 X93.180 Y108.780 E13.37360
G1 X93.965 Y108.780 E13.37994
G1 X108.780 Y93.965 E13.54936
G1 X108.780 Y94.749 E13.55570
G1 X94.749 Y108.780 E13.71615
G1 X95.533 Y108.780 E13.72249
G1 X108.780 Y95.533 E13.87397
G1 X108.780 Y96.317 E13.88031
G1 X96.317 Y108.780 E14.02283
G1 X97.101 Y108.780 E14.02917
G1 X108.780 Y97.101 E14.16272
G1 X108.780 Y97.885 E14.16906
G1 X97.885 Y108.780 E14.29364
G1 X98.669 Y108.780 E14.29998
G1 X108.780 Y98.669 E14.41560
G1 X108.780 Y99.454 E14.42194
G1 X99.454 Y108.780 E14.52859
G1 X100.238 Y108.780 E14.53493
G1 X108.780 Y100.238 E14.63261
G1 X108.780 Y101.022 E14.63895
G1 X101.022 Y108.780 E14.72767
G1 X101.806 Y108.780 E14.73401
G1 X108.780 Y101.806 E14.81376
G1 X108.780 Y102.590 E14.82010
G1 X102.590 Y108.780 E14.89088
G1 X103.374 Y108.780 E14.89722
G1 X108.780 Y103.374 E14.95904
G1 X108.780 Y104.158 E14.96538
G1 X104.158 Y108.780 E15.01822
G1 X104.942 Y108.780 E15.02457
G1 X108.780 Y104.942 E15.06845
G1 X108.780 Y105.727 E15.07479
G1 X105.727 Y108.780 E15.10970
G1 X106.511 Y108.780 E15.11604
G1 X108.780 Y106.511 E15.14199
G1 X108.780 Y107.295 E15.14833
G1 X107.295 Y108.780 E15.16531
G1 X108.079 Y108.780 E15.17166
G1 X108.780 Y108.079 E15.17967
G1 Z0.300 F9000.000
G1 X109.171 Y109.171
G1 X90.829 Y109.171 F3000.000 E15.32517
G1 X90.829 Y90.829 E15.47067
G1 X109.171 Y90.829 E15.61617
G1 X109.171 Y109.087 E15.76101
G1 X109.720 Y109.720 F9000.000
G1 X90.280 Y109.720 F3000.000 E15.91523
G1 X90.280 Y90.280 E16.06944
G1 X109.720 Y90.280 E16.22366
G1 X109.720 Y109.636 E16.37721
G1 X108.780 Y91.921 F9000.000
G1 X108.079 Y91.220 F3600.000 E16.38522
G1 X107.295 Y91.220 E16.39156
G1 X108.780 Y92.705 E16.40854
G1 X108.780 Y93.489 E16.41488
G1 X106.511 Y91.220 E16.44083
G1 X105.727 Y91.220 E16.44717
G1 X108.780 Y94.273 E16.48209
G1 X108.780 Y95.058 E16.48843
G1 X104.942 Y91.220 E16.53231
G1 X104.158 Y91.220 E16.53865
G1 X108.780 Y95.842 E16.59150
G1 X108.780 Y96.626 E16.59784
G1 X103.374 Y91.220 E16.65966
G1 X102.590 Y91.220 E16.66600
G1 X108.780 Y97.410 E16.73678
G1 X108.780 Y98.194 E16.74312
G1 X101.806 Y91.220 E16.82287
G1 X101.022 Y91.220 E16.82921
G1 X108.780 Y98.978 E16.91793
G1 X108.780 Y99.762 E16.92427
G1 X100.238 Y91.220 E17.02195
G1 X99.454 Y91.220 E17.02829
G1 X108.780 Y100.546 E17.13494
G1 X108.780 Y101.331 E17.14128
G1 X98.669 Y91.220 E17.25690
G1 X97.885 Y91.220 E17.26324
G1 X108.780 Y102.115 E17.38782
G1 X108.780 Y102.899 E17.39416
G1 X97.101 Y91.220 E17.52771
G1 X96.317 Y91.220 E17.53405
G1 X108.780 Y103.683 E17.67657
G1 X108.780 Y104.467 E17.68291
G1 X95.533 Y91.220 E17.83439
G1 X94.749 Y91.220 E17.84073
G1 X108.780 Y105.251 E18.00118
G1 X108.780 Y106.035 E18.00752
G1 X93.965 Y91.220 E18.17694
G1 X93.180 Y91.220 E18.18328
G1 X108.780 Y106.820 E18.36166
G1 X108.780 Y107.604 E18.36800
G1 X92.396 Y91.220 E18.55535
G1 X91.612 Y91.220 E18.56169
G1 X108.780 Y108.388 E18.75801
G1 X108.388 Y108.780 E18.76249
G1 X91.220 Y91.612 E18.95881
G1 X91.220 Y92.396 E18.96515
G1 X107.604 Y108.780 E19.15250
G1 X106.820 Y108.780 E19.15884
G1 X91.220 Y93.180 E19.33722
G1 X91.220 Y93.965 E19.34357
G1 X106.035 Y108.780 E19.51298
G1 X105.251 Y108.780 E19.51932
G1 X91.220 Y94.749 E19.67977
G1 X91.220 Y95.533 E19.68611
G1 X104.467 Y108.780 E19.83760
G1 X103.683 Y108.780 E19.84394
G1 X91.220 Y96.317 E19.98645
G1 X91.220 Y97.101 E19.99279
G1 X102.899 Y108.780 E20.12634
G1 X102.115 Y108.780 E20.13268
G1 X91.220 Y97.885 E20.25727
G1 X91.220 Y98.669 E20.26361
G1 X101.331 Y108.780 E20.37922
G1 X100.546 Y108.780 E20.38556
G1 X91.220 Y99.454 E20.49221
G1 X91.220 Y100.238 E20.49855
G1 X99.762 Y108.780 E20.59624
G1 X98.978 Y108.780 E20.60258
G1 X91.220 Y101.022 E20.69129
G1 X91.220 Y101.806 E20.69763
G1 X98.194 Y108.780 E20.77738
G1 X97.410 Y108.780 E20.78372
G1 X91.220 Y102.590 E20.85451
G1 X91.220 Y103.374 E20.86085
G1 X96.626 Y108.780 E20.92266
G1 X95.842 Y108.780 E20.92900
G1 X91.220 Y104.158 E20.98185
G1 X91.220 Y104.942 E20.98819
G1 X95.058 Y108.780 E21.03207
G1 X94.273 Y108.780 E21.03841
G1 X91.220 Y105.727 E21.07333
G1 X91.220 Y106.511 E21.07967
G1 X93.489 Y108.780 E21.10562
G1 X92.705 Y108.780 E21.11196
G1 X91.220 Y107.295 E21.12894
G1 X91.220 Y108.079 E21.13528
G1 X91.921 Y108.780 E21.14330
G1 Z0.400 F9000.000
G1 X90.829 Y109.171
G1 X90.829 Y90.829 F3000.000 E21.28880
G1 X109.171 Y90.829 E21.43430
G1 X109.171 Y109.171 E21.57980
G1 X90.913 Y109.171 E21.72464
G1 X90.280 Y109.720 F9000.000
G1 X90.280 Y90.280 F3000.000 E21.87885
G1 X109.720 Y90.280 E22.03307
G1 X109.720 Y109.720 E22.18728
G1 X90.364 Y109.720 E22.34083
G1 X91.220 Y92.762 F9000.000
G1 X92.762 Y91.220 F6000.000 E22.35813
G1 X95.351 Y91.220 E22.37867
G1 X91.220 Y95.351 E22.42502
G1 X91.220 Y97.941 E22.44556
G1 X97.941 Y91.220 E22.52096
G1 X100.530 Y91.220 E22.54150
G1 X91.220 Y100.530 E22.64595
G1 X91.220 Y103.119 E22.66649
G1 X103.119 Y91.220 E22.79998
G1 X105.709 Y91.220 E22.82052
G1 X91.220 Y105.709 E22.98306
G1 X91.220 Y108.298 E23.00360
G1 X108.298 Y91.220 E23.19520
G1 X108.780 Y93.327 E23.21235
G1 X93.327 Y108.780 E23.38570
G1 X95.917 Y108.780 E23.40625
G1 X108.780 Y95.917 E23.55056
G1 X108.780 Y98.506 E23.57110
G1 X98.506 Y108.780 E23.68636
G1 X101.095 Y108.780 E23.70690
G1 X108.780 Y101.095 E23.79311
G1 X108.780 Y103.685 E23.81365
G1 X103.685 Y108.780 E23.87082
G1 X106.274 Y108.780 E23.89136
G1 X108.780 Y106.274 E23.91947
G1 Z0.500 F9000.000
G1 X109.171 Y109.171
G1 X90.829 Y109.171 F3000.000 E24.06497
G1 X90.829 Y90.829 E24.21047
G1 X109.171 Y90.829 E24.35598
G1 X109.171 Y109.087 E24.50081
G1 X109.720 Y109.720 F9000.000
G1 X90.280 Y109.720 F3000.000 E24.65503
G1 X90.280 Y90.280 E24.80924
G1 X109.720 Y90.280 E24.96346
G1 X109.720 Y109.636 E25.11701
G1 X93.726 Y108.780 F9000.000
G1 X91.220 Y106.274 F6000.000 E25.14512
G1 X91.220 Y103.685 E25.16566
G1 X96.315 Y108.780 E25.22283
G1 X98.905 Y108.780 E25.24337
G1 X91.220 Y101.095 E25.32958
G1 X91.220 Y98.506 E25.35012
G1 X101.494 Y108.780 E25.46538
G1 X104.083 Y108.780 E25.48592
G1 X91.220 Y95.917 E25.63023
G1 X91.220 Y93.327 E25.65077
G1 X106.673 Y108.780 E25.82413
G1 X108.780 Y108.298 E25.84128
G1 X91.702 Y91.220 E26.03287
G1 X94.291 Y91.220 E26.05341
G1 X108.780 Y105.709 E26.21596
G1 X108.780 Y103.119 E26.23650
G1 X96.881 Y91.220 E26.36999
G1 X99.470 Y91.220 E26.39053
G1 X108.780 Y100.530 E26.49498
G1 X108.780 Y97.941 E26.51552
G1 X102.059 Y91.220 E26.59092
G1 X104.649 Y91.220 E26.61146
G1 X108.780 Y95.351 E26.65781
G1 X108.780 Y92.762 E26.67835
G1 X107.238 Y91.220 E26.69565
G1 Z0.600 F9000.000
