; generated by Slic3r 0.7.0-ultimaker on 2012-02-28 at 16:57:18

; layer_height = 0.1
; perimeters = 2
; solid_layers = 3
; fill_density = 0.4
; nozzle_diameter = 0.4
; filament_diameter = 3
; extrusion_multiplier = 1
; perimeter_speed = 50
; infill_speed = 50
; travel_speed = 100
; extrusion_width_ratio = 0
; scale = 1
; single wall width = 0.56mm

M104 S220 ; set temperature
M92 X78.7402 Y78.7402 E926
G28 ; home all axes
M106 ; turn fan on
M109 S220 ; wait for temperature to be reached
G90 ; use absolute coordinates
G21 ; set units to millimeters
G92 E0 ; reset extrusion distance
M82 ; use absolute distances for extrusion
G1 Z0.100 F6000.000
G1 X52.430 Y53.080
G1
G1 X53.760 Y51.800 F1500.000 E0.01406
G1 X55.580 Y50.390 E0.03160
G1 X57.540 Y49.180 E0.04915
G1 X59.200 Y48.380 E0.06319
G1 X60.490 Y47.880 E0.07373
G1 X62.260 Y47.350 E0.08781
G1 X64.070 Y46.980 E0.10189
G1 X65.440 Y46.810 E0.11240
G1 X67.280 Y46.730 E0.12643
G1 X133.640 Y46.750 E0.63202
G1 X135.930 Y46.980 E0.64955
G1 X137.740 Y47.350 E0.66363
G1 X139.510 Y47.880 E0.67770
G1 X140.800 Y48.380 E0.68824
G1 X142.460 Y49.180 E0.70228
G1 X144.040 Y50.130 E0.71633
G1 X145.530 Y51.210 E0.73035
G1 X147.250 Y52.750 E0.74794
G1 X148.200 Y53.760 E0.75850
G1 X149.610 Y55.580 E0.77604
G1 X150.820 Y57.540 E0.79359
G1 X151.620 Y59.200 E0.80763
G1 X152.120 Y60.490 E0.81817
G1 X152.650 Y62.260 E0.83225
G1 X153.020 Y64.070 E0.84633
G1 X153.190 Y65.440 E0.85684
G1 X153.250 Y133.640 E1.37644
G1 X153.020 Y135.930 E1.39398
G1 X152.650 Y137.740 E1.40805
G1 X152.120 Y139.510 E1.42213
G1 X151.620 Y140.800 E1.43267
G1 X150.820 Y142.460 E1.44671
G1 X149.870 Y144.040 E1.46076
G1 X148.790 Y145.530 E1.47478
G1 X147.250 Y147.250 E1.49237
G1 X146.240 Y148.200 E1.50293
G1 X144.420 Y149.610 E1.52047
G1 X142.460 Y150.820 E1.53802
G1 X140.800 Y151.620 E1.55206
G1 X139.510 Y152.120 E1.56260
G1 X137.740 Y152.650 E1.57668
G1 X135.930 Y153.020 E1.59075
G1 X134.560 Y153.190 E1.60127
G1 X132.720 Y153.270 E1.61530
G1 X66.360 Y153.250 E2.12088
G1 X64.070 Y153.020 E2.13842
G1 X62.260 Y152.650 E2.15249
G1 X60.490 Y152.120 E2.16657
G1 X59.200 Y151.620 E2.17711
G1 X57.540 Y150.820 E2.19115
G1 X55.960 Y149.870 E2.20520
G1 X54.470 Y148.790 E2.21922
G1 X52.750 Y147.250 E2.23681
G1 X51.800 Y146.240 E2.24737
G1 X50.390 Y144.420 E2.26491
G1 X49.180 Y142.460 E2.28246
G1 X48.380 Y140.800 E2.29650
G1 X47.880 Y139.510 E2.30704
G1 X47.350 Y137.740 E2.32112
G1 X46.980 Y135.930 E2.33519
G1 X46.810 Y134.560 E2.34571
G1 X46.750 Y66.360 E2.86531
G1 X46.980 Y64.070 E2.88285
G1 X47.350 Y62.260 E2.89692
G1 X47.880 Y60.490 E2.91100
G1 X48.380 Y59.200 E2.92154
G1 X49.180 Y57.540 E2.93558
G1 X50.130 Y55.960 E2.94962
G1 X51.210 Y54.470 E2.96364
G1 X52.372 Y53.141 E2.97709
G1 X52.660 Y53.630 F6000.000
G1 X53.630 Y52.660 F1500.000 E2.98755
G1 X55.010 Y51.480 E3.00138
G1 X56.500 Y50.430 E3.01527
G1 X58.080 Y49.520 E3.02916
G1 X59.730 Y48.760 E3.04300
G1 X60.580 Y48.430 E3.04995
G1 X62.320 Y47.900 E3.06380
G1 X64.110 Y47.530 E3.07773
G1 X65.460 Y47.360 E3.08810
G1 X67.280 Y47.280 E3.10198
G1 X133.630 Y47.300 E3.60748
G1 X135.890 Y47.530 E3.62479
G1 X137.680 Y47.900 E3.63872
G1 X139.420 Y48.430 E3.65257
G1 X141.100 Y49.120 E3.66641
G1 X142.720 Y49.960 E3.68031
G1 X143.880 Y50.680 E3.69072
G1 X144.990 Y51.480 E3.70114
G1 X146.370 Y52.660 E3.71497
G1 X147.340 Y53.630 E3.72542
G1 X148.520 Y55.010 E3.73926
G1 X149.570 Y56.500 E3.75315
G1 X150.480 Y58.080 E3.76704
G1 X151.240 Y59.730 E3.78088
G1 X151.570 Y60.580 E3.78782
G1 X152.100 Y62.320 E3.80168
G1 X152.470 Y64.110 E3.81561
G1 X152.640 Y65.460 E3.82597
G1 X152.700 Y133.630 E4.34535
G1 X152.470 Y135.890 E4.36265
G1 X152.100 Y137.680 E4.37658
G1 X151.570 Y139.420 E4.39044
G1 X150.880 Y141.100 E4.40428
G1 X150.040 Y142.720 E4.41818
G1 X149.320 Y143.880 E4.42858
G1 X148.520 Y144.990 E4.43900
G1 X147.340 Y146.370 E4.45284
G1 X146.370 Y147.340 E4.46329
G1 X144.990 Y148.520 E4.47712
G1 X143.500 Y149.570 E4.49101
G1 X141.920 Y150.480 E4.50490
G1 X140.270 Y151.240 E4.51874
G1 X139.420 Y151.570 E4.52569
G1 X137.680 Y152.100 E4.53955
G1 X135.890 Y152.470 E4.55347
G1 X134.540 Y152.640 E4.56384
G1 X132.720 Y152.720 E4.57772
G1 X66.370 Y152.700 E5.08323
G1 X64.110 Y152.470 E5.10053
G1 X62.320 Y152.100 E5.11446
G1 X60.580 Y151.570 E5.12832
G1 X58.900 Y150.880 E5.14215
G1 X57.280 Y150.040 E5.15606
G1 X56.120 Y149.320 E5.16646
G1 X55.010 Y148.520 E5.17688
G1 X53.630 Y147.340 E5.19072
G1 X52.660 Y146.370 E5.20117
G1 X51.480 Y144.990 E5.21500
G1 X50.430 Y143.500 E5.22889
G1 X49.520 Y141.920 E5.24278
G1 X48.760 Y140.270 E5.25662
G1 X48.430 Y139.420 E5.26357
G1 X47.900 Y137.680 E5.27743
G1 X47.530 Y135.890 E5.29135
G1 X47.360 Y134.540 E5.30172
G1 X47.300 Y66.370 E5.82109
G1 X47.530 Y64.110 E5.83840
G1 X47.900 Y62.320 E5.85232
G1 X48.430 Y60.580 E5.86618
G1 X49.120 Y58.900 E5.88002
G1 X49.960 Y57.280 E5.89392
G1 X50.680 Y56.120 E5.90432
G1 X51.480 Y55.010 E5.91475
G1 X52.604 Y53.693 E5.92794
G1 X67.829 Y67.829 F6000.000
G1 X96.171 Y67.829 F1500.000 E6.14387
G1 X96.171 Y96.171 E6.35980
G1 X67.829 Y96.171 E6.57572
G1 X67.829 Y67.913 E6.79101
G1 X67.280 Y67.280 F6000.000
G1 X96.720 Y67.280 F1500.000 E7.01531
G1 X96.720 Y96.720 E7.23960
G1 X67.280 Y96.720 E7.46390
G1 X67.280 Y67.364 E7.68756
G1 X68.678 Y95.780 F6000.000
G1 X68.220 Y95.322 F1800.000 E7.69261
G1 X68.220 Y94.536 E7.69873
G1 X69.464 Y95.780 E7.71244
G1 X70.249 Y95.780 E7.71856
G1 X68.220 Y93.751 E7.74093
G1 X68.220 Y92.965 E7.74706
G1 X71.035 Y95.780 E7.77808
G1 X71.821 Y95.780 E7.78421
G1 X68.220 Y92.179 E7.82389
G1 X68.220 Y91.394 E7.83001
G1 X72.606 Y95.780 E7.87836
G1 X73.392 Y95.780 E7.88448
G1 X68.220 Y90.608 E7.94149
G1 X68.220 Y89.823 E7.94761
G1 X74.177 Y95.780 E8.01327
G1 X74.963 Y95.780 E8.01939
G1 X68.220 Y89.037 E8.09371
G1 X68.220 Y88.252 E8.09984
G1 X75.748 Y95.780 E8.18282
G1 X76.534 Y95.780 E8.18894
G1 X68.220 Y87.466 E8.28058
G1 X68.220 Y86.681 E8.28670
G1 X77.319 Y95.780 E8.38700
G1 X78.105 Y95.780 E8.39312
G1 X68.220 Y85.895 E8.50208
G1 X68.220 Y85.109 E8.50820
G1 X78.891 Y95.780 E8.62582
G1 X79.676 Y95.780 E8.63194
G1 X68.220 Y84.324 E8.75822
G1 X68.220 Y83.538 E8.76434
G1 X80.462 Y95.780 E8.89927
G1 X81.247 Y95.780 E8.90539
G1 X68.220 Y82.753 E9.04899
G1 X68.220 Y81.967 E9.05511
G1 X82.033 Y95.780 E9.20736
G1 X82.818 Y95.780 E9.21348
G1 X68.220 Y81.182 E9.37439
G1 X68.220 Y80.396 E9.38052
G1 X83.604 Y95.780 E9.55008
G1 X84.389 Y95.780 E9.55621
G1 X68.220 Y79.611 E9.73444
G1 X68.220 Y78.825 E9.74056
G1 X85.175 Y95.780 E9.92744
G1 X85.960 Y95.780 E9.93357
G1 X68.220 Y78.040 E10.12911
G1 X68.220 Y77.254 E10.13524
G1 X86.746 Y95.780 E10.33944
G1 X87.532 Y95.780 E10.34556
G1 X68.220 Y76.468 E10.55843
G1 X68.220 Y75.683 E10.56455
G1 X88.317 Y95.780 E10.78607
G1 X89.103 Y95.780 E10.79219
G1 X68.220 Y74.897 E11.02237
G1 X68.220 Y74.112 E11.02850
G1 X89.888 Y95.780 E11.26734
G1 X90.674 Y95.780 E11.27346
G1 X68.220 Y73.326 E11.52096
G1 X68.220 Y72.541 E11.52708
G1 X91.459 Y95.780 E11.78324
G1 X92.245 Y95.780 E11.78936
G1 X68.220 Y71.755 E12.05418
G1 X68.220 Y70.970 E12.06030
G1 X93.030 Y95.780 E12.33377
G1 X93.816 Y95.780 E12.33990
G1 X68.220 Y70.184 E12.62203
G1 X68.220 Y69.398 E12.62815
G1 X94.602 Y95.780 E12.91895
G1 X95.387 Y95.780 E12.92507
G1 X68.220 Y68.613 E13.22452
G1 X68.613 Y68.220 E13.22885
G1 X95.780 Y95.387 E13.52830
G1 X95.780 Y94.602 E13.53442
G1 X69.398 Y68.220 E13.82522
G1 X70.184 Y68.220 E13.83134
G1 X95.780 Y93.816 E14.11347
G1 X95.780 Y93.030 E14.11960
G1 X70.970 Y68.220 E14.39307
G1 X71.755 Y68.220 E14.39919
G1 X95.780 Y92.245 E14.66401
G1 X95.780 Y91.459 E14.67013
G1 X72.541 Y68.220 E14.92629
G1 X73.326 Y68.220 E14.93241
G1 X95.780 Y90.674 E15.17991
G1 X95.780 Y89.888 E15.18603
G1 X74.112 Y68.220 E15.42487
G1 X74.897 Y68.220 E15.43100
G1 X95.780 Y89.103 E15.66118
G1 X95.780 Y88.317 E15.66730
G1 X75.683 Y68.220 E15.88882
G1 X76.468 Y68.220 E15.89494
G1 X95.780 Y87.532 E16.10781
G1 X95.780 Y86.746 E16.11393
G1 X77.254 Y68.220 E16.31813
G1 X78.040 Y68.220 E16.32426
G1 X95.780 Y85.960 E16.51980
G1 X95.780 Y85.175 E16.52592
G1 X78.825 Y68.220 E16.71281
G1 X79.611 Y68.220 E16.71893
G1 X95.780 Y84.389 E16.89716
G1 X95.780 Y83.604 E16.90328
G1 X80.396 Y68.220 E17.07285
G1 X81.182 Y68.220 E17.07898
G1 X95.780 Y82.818 E17.23989
G1 X95.780 Y82.033 E17.24601
G1 X81.967 Y68.220 E17.39826
G1 X82.753 Y68.220 E17.40438
G1 X95.780 Y81.247 E17.54797
G1 X95.780 Y80.462 E17.55410
G1 X83.538 Y68.220 E17.68903
G1 X84.324 Y68.220 E17.69515
G1 X95.780 Y79.676 E17.82143
G1 X95.780 Y78.891 E17.82755
G1 X85.109 Y68.220 E17.94517
G1 X85.895 Y68.220 E17.95129
G1 X95.780 Y78.105 E18.06025
G1 X95.780 Y77.319 E18.06637
G1 X86.681 Y68.220 E18.16667
G1 X87.466 Y68.220 E18.17279
G1 X95.780 Y76.534 E18.26443
G1 X95.780 Y75.748 E18.27055
G1 X88.252 Y68.220 E18.35353
G1 X89.037 Y68.220 E18.35965
G1 X95.780 Y74.963 E18.43398
G1 X95.780 Y74.177 E18.44010
G1 X89.823 Y68.220 E18.50576
G1 X90.608 Y68.220 E18.51188
G1 X95.780 Y73.392 E18.56889
G1 X95.780 Y72.606 E18.57501
G1 X91.394 Y68.220 E18.62335
G1 X92.179 Y68.220 E18.62948
G1 X95.780 Y71.821 E18.66916
G1 X95.780 Y71.035 E18.67529
G1 X92.965 Y68.220 E18.70631
G1 X93.751 Y68.220 E18.71244
G1 X95.780 Y70.249 E18.73480
G1 X95.780 Y69.464 E18.74093
G1 X94.536 Y68.220 E18.75464
G1 X95.322 Y68.220 E18.76076
G1 X95.780 Y68.678 E18.76581
G1 X96.171 Y103.829 F6000.000
G1 X96.171 Y132.171 F1500.000 E18.98174
G1 X67.829 Y132.171 E19.19766
G1 X67.829 Y103.829 E19.41359
G1 X96.087 Y103.829 E19.62888
G1 X96.720 Y103.280 F6000.000
G1 X96.720 Y132.720 F1500.000 E19.85318
G1 X67.280 Y132.720 E20.07747
G1 X67.280 Y103.280 E20.30177
G1 X96.636 Y103.280 E20.52543
G1 X95.780 Y104.678 F6000.000
G1 X95.322 Y104.220 F1800.000 E20.53048
G1 X94.536 Y104.220 E20.53660
G1 X95.780 Y105.464 E20.55031
G1 X95.780 Y106.249 E20.55643
G1 X93.751 Y104.220 E20.57880
G1 X92.965 Y104.220 E20.58492
G1 X95.780 Y107.035 E20.61595
G1 X95.780 Y107.821 E20.62207
G1 X92.179 Y104.220 E20.66176
G1 X91.394 Y104.220 E20.66788
G1 X95.780 Y108.606 E20.71623
G1 X95.780 Y109.392 E20.72235
G1 X90.608 Y104.220 E20.77935
G1 X89.823 Y104.220 E20.78548
G1 X95.780 Y110.177 E20.85114
G1 X95.780 Y110.963 E20.85726
G1 X89.037 Y104.220 E20.93158
G1 X88.252 Y104.220 E20.93771
G1 X95.780 Y111.748 E21.02069
G1 X95.780 Y112.534 E21.02681
G1 X87.466 Y104.220 E21.11845
G1 X86.681 Y104.220 E21.12457
G1 X95.780 Y113.319 E21.22487
G1 X95.780 Y114.105 E21.23099
G1 X85.895 Y104.220 E21.33995
G1 X85.109 Y104.220 E21.34607
G1 X95.780 Y114.891 E21.46369
G1 X95.780 Y115.676 E21.46981
G1 X84.324 Y104.220 E21.59608
G1 X83.538 Y104.220 E21.60221
G1 X95.780 Y116.462 E21.73714
G1 X95.780 Y117.247 E21.74326
G1 X82.753 Y104.220 E21.88686
G1 X81.967 Y104.220 E21.89298
G1 X95.780 Y118.033 E22.04523
G1 X95.780 Y118.818 E22.05135
G1 X81.182 Y104.220 E22.21226
G1 X80.396 Y104.220 E22.21838
G1 X95.780 Y119.604 E22.38795
G1 X95.780 Y120.389 E22.39408
G1 X79.611 Y104.220 E22.57230
G1 X78.825 Y104.220 E22.57843
G1 X95.780 Y121.175 E22.76531
G1 X95.780 Y121.960 E22.77144
G1 X78.040 Y104.220 E22.96698
G1 X77.254 Y104.220 E22.97310
G1 X95.780 Y122.746 E23.17731
G1 X95.780 Y123.532 E23.18343
G1 X76.468 Y104.220 E23.39629
G1 X75.683 Y104.220 E23.40242
G1 X95.780 Y124.317 E23.62394
G1 X95.780 Y125.103 E23.63006
G1 X74.897 Y104.220 E23.86024
G1 X74.112 Y104.220 E23.86636
G1 X95.780 Y125.888 E24.10520
G1 X95.780 Y126.674 E24.11133
G1 X73.326 Y104.220 E24.35883
G1 X72.541 Y104.220 E24.36495
G1 X95.780 Y127.459 E24.62111
G1 X95.780 Y128.245 E24.62723
G1 X71.755 Y104.220 E24.89204
G1 X70.970 Y104.220 E24.89817
G1 X95.780 Y129.030 E25.17164
G1 X95.780 Y129.816 E25.17776
G1 X70.184 Y104.220 E25.45990
G1 X69.398 Y104.220 E25.46602
G1 X95.780 Y130.602 E25.75681
G1 X95.780 Y131.387 E25.76294
G1 X68.613 Y104.220 E26.06239
G1 X68.220 Y104.613 E26.06672
G1 X95.387 Y131.780 E26.36617
G1 X94.602 Y131.780 E26.37229
G1 X68.220 Y105.398 E26.66308
G1 X68.220 Y106.184 E26.66921
G1 X93.816 Y131.780 E26.95134
G1 X93.030 Y131.780 E26.95746
G1 X68.220 Y106.970 E27.23094
G1 X68.220 Y107.755 E27.23706
G1 X92.245 Y131.780 E27.50188
G1 X91.459 Y131.780 E27.50800
G1 X68.220 Y108.541 E27.76416
G1 X68.220 Y109.326 E27.77028
G1 X90.674 Y131.780 E28.01778
G1 X89.888 Y131.780 E28.02390
G1 X68.220 Y110.112 E28.26274
G1 X68.220 Y110.897 E28.26886
G1 X89.103 Y131.780 E28.49904
G1 X88.317 Y131.780 E28.50517
G1 X68.220 Y111.683 E28.72669
G1 X68.220 Y112.468 E28.73281
G1 X87.532 Y131.780 E28.94568
G1 X86.746 Y131.780 E28.95180
G1 X68.220 Y113.254 E29.15600
G1 X68.220 Y114.040 E29.16212
G1 X85.960 Y131.780 E29.35767
G1 X85.175 Y131.780 E29.36379
G1 X68.220 Y114.825 E29.55068
G1 X68.220 Y115.611 E29.55680
G1 X84.389 Y131.780 E29.73503
G1 X83.604 Y131.780 E29.74115
G1 X68.220 Y116.396 E29.91072
G1 X68.220 Y117.182 E29.91684
G1 X82.818 Y131.780 E30.07775
G1 X82.033 Y131.780 E30.08388
G1 X68.220 Y117.967 E30.23613
G1 X68.220 Y118.753 E30.24225
G1 X81.247 Y131.780 E30.38584
G1 X80.462 Y131.780 E30.39197
G1 X68.220 Y119.538 E30.52690
G1 X68.220 Y120.324 E30.53302
G1 X79.676 Y131.780 E30.65930
G1 X78.891 Y131.780 E30.66542
G1 X68.220 Y121.109 E30.78303
G1 X68.220 Y121.895 E30.78916
G1 X78.105 Y131.780 E30.89811
G1 X77.319 Y131.780 E30.90424
G1 X68.220 Y122.681 E31.00453
G1 X68.220 Y123.466 E31.01066
G1 X76.534 Y131.780 E31.10230
G1 X75.748 Y131.780 E31.10842
G1 X68.220 Y124.252 E31.19140
G1 X68.220 Y125.037 E31.19752
G1 X74.963 Y131.780 E31.27184
G1 X74.177 Y131.780 E31.27797
G1 X68.220 Y125.823 E31.34363
G1 X68.220 Y126.608 E31.34975
G1 X73.392 Y131.780 E31.40676
G1 X72.606 Y131.780 E31.41288
G1 X68.220 Y127.394 E31.46122
G1 X68.220 Y128.179 E31.46735
G1 X71.821 Y131.780 E31.50703
G1 X71.035 Y131.780 E31.51315
G1 X68.220 Y128.965 E31.54418
G1 X68.220 Y129.751 E31.55030
G1 X70.249 Y131.780 E31.57267
G1 X69.464 Y131.780 E31.57880
G1 X68.220 Y130.536 E31.59251
G1 X68.220 Y131.322 E31.59863
G1 X68.678 Y131.780 E31.60368
G1 X103.829 Y96.171 F6000.000
G1 X103.829 Y67.829 F1500.000 E31.81961
G1 X132.171 Y67.829 E32.03553
G1 X132.171 Y96.171 E32.25146
G1 X103.913 Y96.171 E32.46675
G1 X103.280 Y96.720 F6000.000
G1 X103.280 Y67.280 F1500.000 E32.69104
G1 X132.720 Y67.280 E32.91534
G1 X132.720 Y96.720 E33.13964
G1 X103.364 Y96.720 E33.36330
G1 X104.678 Y95.780 F6000.000
G1 X104.220 Y95.322 F1800.000 E33.36835
G1 X104.220 Y94.536 E33.37447
G1 X105.464 Y95.780 E33.38818
G1 X106.249 Y95.780 E33.39430
G1 X104.220 Y93.751 E33.41667
G1 X104.220 Y92.965 E33.42279
G1 X107.035 Y95.780 E33.45382
G1 X107.821 Y95.780 E33.45994
G1 X104.220 Y92.179 E33.49963
G1 X104.220 Y91.394 E33.50575
G1 X108.606 Y95.780 E33.55410
G1 X109.392 Y95.780 E33.56022
G1 X104.220 Y90.608 E33.61722
G1 X104.220 Y89.823 E33.62334
G1 X110.177 Y95.780 E33.68901
G1 X110.963 Y95.780 E33.69513
G1 X104.220 Y89.037 E33.76945
G1 X104.220 Y88.252 E33.77557
G1 X111.748 Y95.780 E33.85855
G1 X112.534 Y95.780 E33.86468
G1 X104.220 Y87.466 E33.95632
G1 X104.220 Y86.681 E33.96244
G1 X113.319 Y95.780 E34.06274
G1 X114.105 Y95.780 E34.06886
G1 X104.220 Y85.895 E34.17782
G1 X104.220 Y85.109 E34.18394
G1 X114.891 Y95.780 E34.30156
G1 X115.676 Y95.780 E34.30768
G1 X104.220 Y84.324 E34.43395
G1 X104.220 Y83.538 E34.44008
G1 X116.462 Y95.780 E34.57501
G1 X117.247 Y95.780 E34.58113
G1 X104.220 Y82.753 E34.72472
G1 X104.220 Y81.967 E34.73085
G1 X118.033 Y95.780 E34.88310
G1 X118.818 Y95.780 E34.88922
G1 X104.220 Y81.182 E35.05013
G1 X104.220 Y80.396 E35.05625
G1 X119.604 Y95.780 E35.22582
G1 X120.389 Y95.780 E35.23194
G1 X104.220 Y79.611 E35.41017
G1 X104.220 Y78.825 E35.41629
G1 X121.175 Y95.780 E35.60318
G1 X121.960 Y95.780 E35.60930
G1 X104.220 Y78.040 E35.80485
G1 X104.220 Y77.254 E35.81097
G1 X122.746 Y95.780 E36.01518
G1 X123.532 Y95.780 E36.02130
G1 X104.220 Y76.468 E36.23416
G1 X104.220 Y75.683 E36.24028
G1 X124.317 Y95.780 E36.46181
G1 X125.103 Y95.780 E36.46793
G1 X104.220 Y74.897 E36.69811
G1 X104.220 Y74.112 E36.70423
G1 X125.888 Y95.780 E36.94307
G1 X126.674 Y95.780 E36.94920
G1 X104.220 Y73.326 E37.19669
G1 X104.220 Y72.541 E37.20282
G1 X127.459 Y95.780 E37.45897
G1 X128.245 Y95.780 E37.46510
G1 X104.220 Y71.755 E37.72991
G1 X104.220 Y70.970 E37.73604
